X:475
T:Michael Turner's Waltz
C:Mozart, 1788
N:The Trio of No. 2 from Six German Dances K536
N:http://dme.mozarteum.at/DME/nma/nmapub_srch.php?l=1 then enter 536 in the KV box.  Page 50.
%%MIDI beat 100 95 80
S:Colin Hume's website,  colinhume.com  - chords can also be printed below the stave.
Q:1/4=120
M:3/4
L:1/8
K:G
P:A
V:1
%%MIDI program 40     Violin
%%MIDI gchordoff
|: GA | "G"B2 B2 cA | "/"d2 d2 gf | "C/G"{f}e2 e2 ge | "G"{e}d2 d2 GA |\
"G"B2 B2 cA | "/"d2 d2 "D7"cA | "G"G2 G2 "D7"AB | G4 :|
V:2
%%MIDI program 41     Viola
|: GF | (GFGDAF) | (BGDCB,D) | (CG,CDEC) | (B,G,B,CDF) |\
(GFGDAF) | (BGDGFC) | (B,DB,DCD) | B,2 z2 :|
V:3 bass octave=-2
%%MIDI program 43     Contrabass
|: z2 | G2g2g2 | g2g2g2 | g2g2g2 | g2G2z2 | G2g2g2 | g2B2d2 | G2B2d2 | g2G2 :|
P:B
V:1
|: AB | "D7"c2 cd Bc | "/"A2 A2 Bc | "G"d2 de cd | "/"B2 B2 gf |\
"C/G"{f}e2 e2 ge | "G"{e}d2 d2 GA | "G"B2 Bc "D7"AB | "G"G4 :|
V:2
|: FG | (AFD)D(DE) | (FGEFGA) | (BGD)D(EF) | (GEDCB,D) |\
(CG,CDEC) | (B,DGG,B,C) | DD(DE)(CD) | B,2 z2 :|
V:3
|: z2 | d2f2g2 | d'2d2z2 | G2B2d2 | g2G2G2 | G2G2G2 | G2B2d2 | g2B2d2 | G2g2 :|

